!!!COM: Beethoven
!!!OTL: 24 Variationen uber Venni Amore von V. Righini
!!!Variation: Variation 12 bb
**function	**harm	**kern	**kern	**kern	**kern
*M2/4	*M2/4	*staff3	*staff4	*staff1	*staff2
*d:	*d:	*clefF4	*clefF4	*clefG2	*clefG2
*tb16	*	*k[f#c#]	*k[f#c#]	*k[f#c#]	*k[f#c#]
*	*	*M2/4	*M2/4	*M2/4	*M2/4
*	*	*D:	*D:	*D:	*D:
=	=	=-	=-	=-	=-
2D	2viio2	8gL	4r	(8.ggL	2r
.	.	(8gJ	.	.	.
.	.	.	.	16eeJk	.
.	.	8eL	(4B-	[4ccc#)	.
.	.	8gJ	.	.	.
=	=	=217	=217	=217	=217
4D	4V7	8eL	2A)	4ccc#]	2r
.	.	8gJ	.	.	.
4D	4i64	8fL	.	(8.dddL	.
.	.	8dJ)	.	.	.
.	.	.	.	16aaJk)	.
=	=	=218	=218	=218	=218
2D	2viio2	8gL	4r	(8.ggL	2r
.	.	(8gJ	.	.	.
.	.	.	.	16eeJk	.
.	.	8eL	(4B-	[4ccc#)	.
.	.	8gJ	.	.	.
=	=	=219	=219	=219	=219
4D	4V7	8eL	2A)	4ccc#]	2r
.	.	8gJ	.	.	.
4D	4i64	8fL	.	(8.dddL	.
.	.	[8dJ) [8f	.	.	.
.	.	.	.	16eeeJk)	.
=	=	=220	=220	=220	=220
2D	2viio7/V	4.d;] 4.f;]	4.G#; 4.B;	4.fff;	2r
.	.	8r	8r	(8eee	.
=	=	=221	=221	=221	=221
4D	4viio43	2r	8r	8dddL	2r
*	*	*	*clefF4	*	*
.	.	.	8G 8B- 8e	8ccc#J)	.
4T	4i6	.	8r	8r	.
.	.	.	(8F 8d	(8ddd	.
=	=	=222	=222	=222	=222
8P	8iio65	2r	8GL 8e	8bb-L)	2r
4D	4i64	.	8A'J) 8d' 8f'	8aa'J	.
.	.	.	8r	8r	.
8D	8V7	.	(8A 8e 8g	(8cc#	.
=	=	=223	=223	=223	=223
2T	2i	2r	4d') 4f'	8dd')	2r
.	.	.	.	8r	.
.	.	.	8D'	4r	.
.	.	.	8r	.	.
=	=	=224	=224	=224	=224
*-	*-	*-	*-	*-	*-
